src/assets/svg/logo-dark.svg

<svg width="389" height="78" viewBox="0 0 389 78" fill="none" xmlns="http://www.w3.org/2000/svg">
<path d="M89.655 66.4776C90.0982 66.4776 90.4681 66.1444 90.4681 65.7011C90.4681 65.2578 90.0982 64.9246 89.655 64.9246C89.2249 64.9246 88.855 65.2578 88.855 65.7011C88.855 66.1444 89.2249 66.4776 89.655 66.4776ZM95.0111 66.4776C95.4544 66.4776 95.8243 66.1444 95.8243 65.7011C95.8243 65.2578 95.4544 64.9246 95.0111 64.9246C94.581 64.9246 94.2111 65.2578 94.2111 65.7011C94.2111 66.1444 94.581 66.4776 95.0111 66.4776ZM100.367 66.4776C100.811 66.4776 101.179 66.1444 101.179 65.7011C101.179 65.2578 100.809 64.9246 100.367 64.9246C99.9372 64.9246 99.5673 65.2578 99.5673 65.7011C99.5673 66.1444 99.9372 66.4776 100.367 66.4776ZM111.411 59.2352V58.0154H105.489V66.391H106.818V63.078H110.87V61.8583H106.818V59.2352H111.411ZM119.537 57.8687C117.124 57.8687 115.179 59.7901 115.179 62.2047C115.179 64.6193 117.124 66.5407 119.537 66.5407C121.95 66.5407 123.895 64.6193 123.895 62.2047C123.895 59.7901 121.95 57.8687 119.537 57.8687ZM119.537 65.2959C117.826 65.2959 116.521 63.9162 116.521 62.2047C116.521 60.4932 117.826 59.1002 119.537 59.1002C121.249 59.1002 122.554 60.4917 122.554 62.2047C122.554 63.9176 121.249 65.2959 119.537 65.2959ZM133.918 66.3924H135.543L133.203 63.3496C134.336 62.9547 135.074 62.0315 135.074 60.7867C135.074 59.0987 133.72 58.0154 131.848 58.0154H128.487V66.391H129.817V63.558H131.75L133.916 66.391L133.918 66.3924ZM129.818 59.2352H131.8C132.92 59.2352 133.77 59.8268 133.77 60.7867C133.77 61.7467 132.92 62.3382 131.8 62.3382H129.818V59.2337V59.2352ZM149.555 66.3924H150.971L147.277 58.0169H146.033L142.327 66.3924H143.744L144.605 64.3844H148.693L149.555 66.3924ZM145.097 63.2028L146.648 59.5934L148.188 63.2028H145.098H145.097ZM158.506 61.848V63.0795H161.325C161.03 64.3609 160.082 65.2974 158.604 65.2974C156.819 65.2974 155.613 63.9059 155.613 62.2913C155.613 60.3948 156.931 59.1016 158.691 59.1016C159.676 59.1016 160.845 59.5699 161.275 60.8631H162.692C162.2 58.8683 160.475 57.8701 158.666 57.8701C156.228 57.8701 154.271 59.6932 154.271 62.2913C154.271 64.6193 156.106 66.5407 158.605 66.5407C160.034 66.5407 161.03 65.9242 161.622 64.951L161.72 66.3924H162.767V61.848H158.507H158.506ZM173.268 66.3924H174.893L172.553 63.3496C173.686 62.9547 174.424 62.0315 174.424 60.7867C174.424 59.0987 173.07 58.0154 171.198 58.0154H167.837V66.391H169.167V63.558H171.1L173.266 66.391L173.268 66.3924ZM169.168 59.2352H171.15C172.27 59.2352 173.119 59.8268 173.119 60.7867C173.119 61.7467 172.27 62.3382 171.15 62.3382H169.168V59.2337V59.2352ZM178.992 58.0154V66.391H180.322V58.0154H178.992ZM189.273 65.3077C187.562 65.3077 186.268 64.0028 186.268 62.2032C186.268 60.3919 187.562 59.0987 189.273 59.0987C190.665 59.0987 191.625 59.8869 191.958 61.1801H193.324C192.931 59.1721 191.366 57.8672 189.273 57.8672C186.86 57.8672 184.927 59.6903 184.927 62.2032C184.927 64.7044 186.86 66.551 189.273 66.551C191.366 66.551 192.931 65.2211 193.324 63.2131H191.958C191.626 64.5195 190.665 65.3077 189.273 65.3077ZM205.045 58.0154H203.727V62.7081C203.727 64.2479 202.779 65.3077 201.375 65.3077C199.972 65.3077 199.036 64.2479 199.036 62.7081V58.0154H197.706V62.7081C197.706 65.0611 199.184 66.5392 201.375 66.5392C203.579 66.5392 205.045 65.0611 205.045 62.7081V58.0154ZM211.128 65.1594V58.0154H209.798V66.391H215.597V65.1594H211.128ZM224.647 58.0154H217.394V59.2352H220.361V66.3924H221.679V59.2352H224.647V58.0154ZM235.924 58.0154H234.607V62.7081C234.607 64.2479 233.659 65.3077 232.256 65.3077C230.853 65.3077 229.916 64.2479 229.916 62.7081V58.0154H228.586V62.7081C228.586 65.0611 230.063 66.5392 232.256 66.5392C234.459 66.5392 235.926 65.0611 235.926 62.7081V58.0154H235.924ZM246.107 66.391H247.731L245.392 63.3481C246.525 62.9533 247.263 62.03 247.263 60.7853C247.263 59.0972 245.908 58.014 244.037 58.014H240.676V66.3895H242.005V63.5566H243.939L246.105 66.3895L246.107 66.391ZM242.007 59.2337H243.99C245.11 59.2337 245.96 59.8253 245.96 60.7853C245.96 61.7452 245.11 62.3368 243.99 62.3368H242.007V59.2323V59.2337ZM258.48 66.391H259.897L256.204 58.0154H254.961L251.254 66.391H252.671L253.532 64.3829H257.62L258.482 66.391H258.48ZM254.023 63.2013L255.574 59.5919L257.112 63.2013H254.023ZM265.387 65.1594V58.0154H264.057V66.391H269.856V65.1594H265.387ZM283.338 59.2352V58.0154H277.331V66.391H283.338V65.1594H278.659V62.8564H282.845V61.6366H278.659V59.2352H283.338ZM294.874 66.3924L291.858 62.2414L294.788 58.0169H293.174L290.971 61.183L288.767 58.0169H287.153L290.083 62.2414L287.078 66.3924H288.618L290.981 63.2395L293.333 66.3924H294.871H294.874ZM302.495 65.3077C300.784 65.3077 299.491 64.0028 299.491 62.2032C299.491 60.3919 300.784 59.0987 302.495 59.0987C303.887 59.0987 304.847 59.8869 305.18 61.1801H306.546C306.153 59.1721 304.588 57.8672 302.495 57.8672C300.082 57.8672 298.149 59.6903 298.149 62.2032C298.149 64.7044 300.082 66.551 302.495 66.551C304.588 66.551 306.152 65.2211 306.546 63.2131H305.18C304.848 64.5195 303.887 65.3077 302.495 65.3077ZM317.159 59.2352V58.0154H311.151V66.391H317.159V65.1594H312.48V62.8564H316.666V61.6366H312.48V59.2352H317.159ZM323.007 65.1594V58.0154H321.677V66.391H327.476V65.1594H323.007ZM333.016 65.1594V58.0154H331.686V66.391H337.486V65.1594H333.016ZM347.705 59.2352V58.0154H341.697V66.391H347.705V65.1594H343.025V62.8564H347.212V61.6366H343.025V59.2352H347.705ZM358.232 58.0154V64.0512L353.246 58.0154H352.224V66.391H353.554V60.4785L358.492 66.391H359.55V58.0154H358.234H358.232ZM368.5 65.3077C366.788 65.3077 365.495 64.0028 365.495 62.2032C365.495 60.3919 366.788 59.0987 368.5 59.0987C369.891 59.0987 370.851 59.8869 371.184 61.1801H372.551C372.158 59.1721 370.593 57.8672 368.5 57.8672C366.087 57.8672 364.153 59.6903 364.153 62.2032C364.153 64.7044 366.087 66.551 368.5 66.551C370.593 66.551 372.158 65.2211 372.551 63.2131H371.184C370.853 64.5195 369.891 65.3077 368.5 65.3077ZM383.164 59.2352V58.0154H377.156V66.391H383.164V65.1594H378.484V62.8564H382.67V61.6366H378.484V59.2352H383.164Z" fill="#1A1A1A"/>
<path d="M117.577 16.587V12.4946H91.3948V50.619H95.8233V34.6958H115.221V30.6034H95.8233V16.587H117.577ZM141.375 24.6044V27.2949C139.076 25.1651 135.936 23.9306 132.236 23.9306C124.779 23.9306 118.836 30.0413 118.836 37.6109C118.836 45.2364 124.779 51.2912 132.236 51.2912C135.936 51.2912 139.076 50.0582 141.375 47.9269V50.6175H145.636V24.6029H141.375V24.6044ZM132.797 47.3662C127.303 47.3662 123.097 42.9935 123.097 37.6109C123.097 32.2283 127.303 27.8556 132.797 27.8556C136.217 27.8556 139.245 29.1444 141.375 32.2841V42.9363C139.245 46.076 136.217 47.3647 132.797 47.3647V47.3662ZM157.603 28.8655V24.6044H153.342V50.619H157.603V33.6874C159.902 30.0985 163.378 28.1375 167.639 28.0244V23.9879C163.491 23.9879 160.014 25.7816 157.603 28.8655ZM203.827 23.9321C199.679 23.9321 196.482 25.5027 193.96 28.249C192.167 25.3897 189.083 23.9321 185.102 23.9321C181.346 23.9321 178.655 25.2223 176.524 27.4079V24.6044H172.263V50.619H176.524V32.2298C178.542 29.2031 181.401 27.8571 184.653 27.8571C188.634 27.8571 191.38 29.9312 191.38 35.0334V50.619H195.641V35.0334C195.641 34.0235 195.585 33.1267 195.416 32.2856C197.491 29.1459 200.406 27.8571 203.545 27.8571C207.807 27.8571 210.497 30.1 210.497 35.258V50.619H214.758V35.258C214.758 27.8013 210.441 23.9321 203.826 23.9321H203.827ZM226.112 41.3128L218.039 41.257C218.655 48.4891 224.43 51.3485 231.439 51.3485C238.559 51.3485 244.165 48.5449 244.165 42.2655C244.165 37.4436 240.745 34.9776 235.698 34.0235L230.652 33.1824C228.465 32.7905 227.793 31.9494 227.793 30.9953C227.793 29.9855 228.858 29.1444 231.213 29.1444C233.736 29.1444 235.698 30.0413 235.866 32.0595H243.883C243.491 24.8832 237.66 22.6962 231.213 22.6962C223.981 22.6962 219.103 26.0605 219.103 31.7792C219.103 36.5453 222.41 39.18 227.065 39.9639L232.559 40.9165C234.352 41.1969 235.418 41.8691 235.418 42.8232C235.418 44.0004 233.905 44.6727 231.493 44.6727C228.634 44.6727 226.504 43.6628 226.111 41.3084L226.112 41.3128ZM268.483 41.8735C266.856 42.49 265.399 42.995 263.661 42.995C261.026 42.995 259.4 41.7047 259.4 38.9026V31.2214H268.65V23.4286H259.4V14.1783H250.317V23.4286H244.99V31.2214H250.317V39.183C250.317 46.5281 254.802 51.3485 262.202 51.3485C263.771 51.3485 266.688 51.1811 269.49 50.0025L268.481 41.8735H268.483ZM291.399 23.4286V24.8304C289.38 23.4844 286.969 22.7006 283.942 22.7006C276.597 22.7006 270.431 28.8684 270.431 36.9974C270.431 45.0705 276.598 51.3499 283.942 51.3499C286.97 51.3499 289.38 50.5089 291.399 49.1628V50.6204H300.482V23.4286H291.399ZM285.792 43.6115C282.091 43.6115 279.345 40.7521 279.345 36.9959C279.345 33.2397 282.093 30.3803 285.792 30.3803C287.754 30.3803 289.661 30.8853 291.399 32.7905V41.1998C289.661 43.1065 287.754 43.61 285.792 43.61V43.6115ZM323.732 22.9795C319.696 22.9795 316.781 24.2682 314.369 26.3438V23.4286H305.23V50.6204H314.369V35.0349C316.499 32.9608 319.302 31.7836 323.732 31.6148V22.9809V22.9795ZM377.301 50.619H388.178L376.965 34.5284L387.281 23.4271H376.46L367.041 33.5744V10.8125H357.902V50.6175H367.041V45.2349L370.797 41.1983L377.301 50.6175V50.619ZM340.481 43.6672C336.555 43.6672 334.257 40.6963 334.257 36.9959C334.257 33.2955 336.555 30.3803 340.481 30.3803C343.228 30.3803 345.358 32.1182 345.807 34.5857H354.385C353.713 27.5782 347.939 22.7006 340.425 22.7006C331.902 22.7006 325.567 28.7554 325.567 36.9974C325.567 45.2951 331.902 51.3499 340.425 51.3499C347.937 51.3499 353.712 46.4723 354.385 39.4648H345.807C345.358 41.9323 343.228 43.6702 340.481 43.6702V43.6672Z" fill="#1A1A1A"/>
<path fill-rule="evenodd" clip-rule="evenodd" d="M39.9253 0C61.9753 0 79.8507 17.3191 79.8507 38.685C79.8507 60.0495 61.9753 77.37 39.9253 77.37C17.8754 77.37 0 60.0509 0 38.685C0 17.3206 17.8754 0 39.9253 0Z" fill="#00C700"/>
<path fill-rule="evenodd" clip-rule="evenodd" d="M44.1267 21.2901C44.1223 21.2857 44.1164 21.3048 44.112 21.3121C44.1253 21.249 44.112 21.2931 44.1355 21.2329C44.1385 21.2241 44.1517 21.1947 44.1561 21.1859C44.1781 21.1433 44.1942 21.1243 44.2207 21.0905L44.1267 21.2916V21.2901ZM23.0588 28.6925L38.6942 39.3549V49.5887L22.9164 38.7868L23.0588 28.6925ZM25.2781 43.6395L38.6942 52.5802V62.814L25.1358 53.7324L25.2781 43.6395ZM56.7898 28.6925L41.1543 39.3549V49.5887L56.9337 38.7868L56.7898 28.6925ZM54.7715 43.6395L41.1543 52.5802V62.814L54.9154 53.7324L54.7715 43.6395ZM23.7428 17.6968C23.847 17.7746 24.0231 17.8422 24.1582 17.9185C24.4855 18.1034 25.0198 18.5115 25.3016 18.7669C26.7504 20.0747 27.9437 22.1708 29.0476 23.8515C30.238 25.6614 31.3873 27.2011 33.1634 28.2638C33.4937 28.4605 34.5358 28.9244 34.9747 28.9523C34.9718 27.9791 35.2125 26.8415 35.509 25.9344C35.7453 25.2151 36.0521 24.5693 36.3838 23.9088C36.4763 23.7267 36.695 23.4332 36.7097 23.235C36.3383 22.8593 34.2129 21.3797 33.8122 21.1404C32.9829 20.6472 32.406 20.2391 31.54 19.7944L30.7517 19.3805C31.0277 19.4157 32.1535 19.8795 32.4339 20.0116C33.9399 20.7191 34.9395 21.2622 36.3193 22.1752C36.535 22.3176 36.8668 22.5906 37.0664 22.6802C37.1956 22.5701 37.5948 21.9184 37.7842 21.663C38.5636 20.6046 39.3797 19.7093 40.3485 18.7728C40.1107 18.4557 39.1375 17.8833 38.7823 17.6807C38.2509 17.3769 37.6345 17.1288 37.0047 16.8954C33.777 15.7064 29.4454 15.705 26.0444 16.7398C25.5585 16.8866 24.0173 17.4194 23.7398 17.6954L23.7413 17.6968H23.7428ZM44.112 21.3121C44.0886 21.4986 43.9726 21.6923 43.8977 21.8817L43.3194 23.5638C42.0761 27.2584 41.4699 31.9511 41.5169 35.9128C41.5272 36.77 41.4552 36.6555 42.3227 36.3297C53.4006 32.1668 47.742 23.3524 48.2029 16.935C48.3116 15.4099 48.6492 15.0606 48.7387 14.5586C44.8621 15.6653 41.8163 17.8378 39.3313 20.6311L38.2744 21.9301L37.3673 23.2849C36.4646 24.7043 35.3255 27.2819 35.5516 29.7478C35.7321 31.7133 36.786 33.5745 38.2627 34.6901C38.6135 34.9543 39.2315 35.4387 39.6102 35.6001C39.663 35.8438 39.5368 36.9359 39.5177 37.2911C39.4942 37.7021 39.4179 38.5769 39.4707 38.96L40.4366 38.8382C40.4923 38.6224 40.4601 37.9164 40.4645 37.6258C40.5114 34.6945 40.6567 32.3885 41.1998 29.469C41.5096 27.7971 41.8501 26.7388 42.3389 25.2019C42.5224 24.6236 43.7862 21.5617 44.1135 21.3121H44.112Z" fill="white"/>
</svg>

<svg xmlns="http://www.w3.org/2000/svg" width="389" height="78" fill="none"><path fill="#1A1A1A" d="M89.655 66.478c.443 0 .813-.334.813-.777s-.37-.776-.813-.776c-.43 0-.8.333-.8.776s.37.777.8.777m5.356 0c.443 0 .813-.334.813-.777s-.37-.776-.813-.776c-.43 0-.8.333-.8.776s.37.777.8.777m5.356 0c.444 0 .812-.334.812-.777s-.37-.776-.812-.776c-.43 0-.8.333-.8.776s.37.777.8.777m11.044-7.243v-1.22h-5.922v8.376h1.329v-3.313h4.052v-1.22h-4.052v-2.623zm8.126-1.366a4.33 4.33 0 0 0-4.358 4.336 4.33 4.33 0 0 0 4.358 4.336 4.33 4.33 0 0 0 4.358-4.336 4.33 4.33 0 0 0-4.358-4.336m0 7.427c-1.711 0-3.016-1.38-3.016-3.091s1.305-3.105 3.016-3.105 3.017 1.392 3.017 3.105-1.305 3.09-3.017 3.09m14.381 1.096h1.625l-2.34-3.042c1.133-.395 1.871-1.319 1.871-2.563 0-1.688-1.354-2.772-3.226-2.772h-3.361v8.376h1.33v-2.833h1.933l2.166 2.833zm-4.1-7.157h1.982c1.12 0 1.97.592 1.97 1.552s-.85 1.551-1.97 1.551h-1.982v-3.104zm19.737 7.157h1.416l-3.694-8.375h-1.244l-3.706 8.375h1.417l.861-2.008h4.088zm-4.458-3.19 1.551-3.609 1.54 3.61zm13.409-1.354v1.232h2.819c-.295 1.28-1.243 2.217-2.721 2.217-1.785 0-2.991-1.391-2.991-3.006 0-1.896 1.318-3.19 3.078-3.19.985 0 2.154.469 2.584 1.762h1.417c-.492-1.995-2.217-2.993-4.026-2.993-2.438 0-4.395 1.823-4.395 4.421 0 2.328 1.835 4.25 4.334 4.25 1.429 0 2.425-.617 3.017-1.59l.098 1.441h1.047v-4.544zm14.762 4.544h1.625l-2.34-3.042c1.133-.395 1.871-1.319 1.871-2.563 0-1.688-1.354-2.772-3.226-2.772h-3.361v8.376h1.33v-2.833h1.933l2.166 2.833zm-4.1-7.157h1.982c1.12 0 1.969.592 1.969 1.552s-.849 1.551-1.969 1.551h-1.982zm9.824-1.22v8.376h1.33v-8.376zm10.281 7.293c-1.711 0-3.005-1.305-3.005-3.105 0-1.811 1.294-3.104 3.005-3.104 1.392 0 2.352.788 2.685 2.081h1.366c-.393-2.008-1.958-3.313-4.051-3.313-2.413 0-4.346 1.823-4.346 4.336 0 2.501 1.933 4.348 4.346 4.348 2.093 0 3.658-1.33 4.051-3.338h-1.366c-.332 1.306-1.293 2.095-2.685 2.095m15.772-7.293h-1.318v4.693c0 1.54-.948 2.6-2.352 2.6s-2.339-1.06-2.339-2.6v-4.693h-1.33v4.693c0 2.353 1.478 3.831 3.669 3.831 2.204 0 3.67-1.478 3.67-3.83zm6.083 7.144v-7.144h-1.33v8.376h5.799v-1.232zm13.519-7.144h-7.253v1.22h2.967v7.157h1.318v-7.157h2.968zm11.277 0h-1.317v4.693c0 1.54-.948 2.6-2.351 2.6s-2.34-1.06-2.34-2.6v-4.693h-1.33v4.693c0 2.353 1.477 3.831 3.67 3.831 2.203 0 3.67-1.478 3.67-3.83v-4.694zm10.183 8.376h1.624l-2.339-3.043c1.133-.395 1.871-1.318 1.871-2.563 0-1.688-1.355-2.771-3.226-2.771h-3.361v8.375h1.329v-2.832h1.934l2.166 2.832zm-4.1-7.157h1.983c1.12 0 1.97.591 1.97 1.551s-.85 1.552-1.97 1.552h-1.983v-3.105zm16.473 7.157h1.417l-3.693-8.376h-1.243l-3.707 8.376h1.417l.861-2.008h4.088l.862 2.008zm-4.457-3.19 1.551-3.61 1.538 3.61zm11.364 1.958v-7.144h-1.33v8.376h5.799v-1.232zm17.951-5.924v-1.22h-6.007v8.376h6.007v-1.232h-4.679v-2.303h4.186v-1.22h-4.186v-2.4zm11.536 7.157-3.016-4.15 2.93-4.225h-1.614l-2.203 3.166-2.204-3.166h-1.614l2.93 4.224-3.005 4.151h1.54l2.363-3.152 2.352 3.152zm7.621-1.084c-1.711 0-3.004-1.305-3.004-3.105 0-1.811 1.293-3.104 3.004-3.104 1.392 0 2.352.788 2.685 2.081h1.366c-.393-2.008-1.958-3.313-4.051-3.313-2.413 0-4.346 1.823-4.346 4.336 0 2.501 1.933 4.348 4.346 4.348 2.093 0 3.657-1.33 4.051-3.338h-1.366c-.332 1.306-1.293 2.095-2.685 2.095m14.664-6.073v-1.22h-6.008v8.376h6.008v-1.232h-4.679v-2.303h4.186v-1.22h-4.186v-2.4zm5.848 5.924v-7.144h-1.33v8.376h5.799v-1.232zm10.009 0v-7.144h-1.33v8.376h5.8v-1.232zm14.689-5.924v-1.22h-6.008v8.376h6.008v-1.232h-4.68v-2.303h4.187v-1.22h-4.187v-2.4zm10.527-1.22v6.036l-4.986-6.036h-1.022v8.376h1.33v-5.913l4.938 5.913h1.058v-8.376zm10.268 7.293c-1.712 0-3.005-1.305-3.005-3.105 0-1.811 1.293-3.104 3.005-3.104 1.391 0 2.351.788 2.684 2.081h1.367c-.393-2.008-1.958-3.313-4.051-3.313-2.413 0-4.347 1.823-4.347 4.336 0 2.501 1.934 4.348 4.347 4.348 2.093 0 3.658-1.33 4.051-3.338h-1.367c-.331 1.306-1.293 2.095-2.684 2.095m14.664-6.073v-1.22h-6.008v8.376h6.008v-1.232h-4.68v-2.303h4.186v-1.22h-4.186v-2.4zM117.577 16.587v-4.092H91.395v38.124h4.428V34.696h19.398v-4.093H95.823V16.587zm23.798 8.017v2.69c-2.299-2.129-5.439-3.363-9.139-3.363-7.457 0-13.4 6.11-13.4 13.68 0 7.625 5.943 13.68 13.4 13.68 3.7 0 6.84-1.233 9.139-3.364v2.69h4.261V24.604zm-8.578 22.762c-5.494 0-9.7-4.373-9.7-9.755s4.206-9.755 9.7-9.755c3.42 0 6.448 1.288 8.578 4.428v10.652c-2.13 3.14-5.158 4.429-8.578 4.429zm24.806-18.5v-4.262h-4.261V50.62h4.261V33.687c2.299-3.588 5.775-5.55 10.036-5.663v-4.036c-4.148 0-7.625 1.794-10.036 4.878m46.224-4.934c-4.148 0-7.345 1.57-9.867 4.317-1.793-2.86-4.877-4.317-8.858-4.317-3.756 0-6.447 1.29-8.578 3.476v-2.804h-4.261V50.62h4.261V32.23c2.018-3.026 4.877-4.372 8.129-4.372 3.981 0 6.727 2.074 6.727 7.176V50.62h4.261V35.033c0-1.01-.056-1.906-.225-2.747 2.075-3.14 4.99-4.429 8.129-4.429 4.262 0 6.952 2.243 6.952 7.401v15.361h4.261V35.258c0-7.457-4.317-11.326-10.932-11.326zm22.285 17.38-8.073-.055c.616 7.232 6.391 10.092 13.4 10.092 7.12 0 12.726-2.804 12.726-9.083 0-4.822-3.42-7.288-8.467-8.242l-5.046-.842c-2.187-.392-2.859-1.233-2.859-2.187 0-1.01 1.065-1.85 3.42-1.85 2.523 0 4.485.896 4.653 2.915h8.017c-.392-7.177-6.223-9.364-12.67-9.364-7.232 0-12.11 3.364-12.11 9.083 0 4.766 3.307 7.401 7.962 8.185l5.494.953c1.793.28 2.859.952 2.859 1.906 0 1.177-1.513 1.85-3.925 1.85-2.859 0-4.989-1.01-5.382-3.365zm42.371.562c-1.627.616-3.084 1.121-4.822 1.121-2.635 0-4.261-1.29-4.261-4.092V31.22h9.25v-7.79h-9.25v-9.25h-9.083v9.25h-5.327v7.792h5.327v7.962c0 7.345 4.485 12.166 11.885 12.166 1.569 0 4.486-.168 7.288-1.346l-1.009-8.13zm22.916-18.445v1.401c-2.019-1.346-4.43-2.13-7.457-2.13-7.345 0-13.511 6.168-13.511 14.297 0 8.074 6.167 14.353 13.511 14.353 3.028 0 5.438-.841 7.457-2.187v1.457h9.083V23.43zm-5.607 20.183c-3.701 0-6.447-2.86-6.447-6.616s2.748-6.616 6.447-6.616c1.962 0 3.869.505 5.607 2.41v8.41c-1.738 1.906-3.645 2.41-5.607 2.41zm37.94-20.632c-4.036 0-6.951 1.288-9.363 3.364v-2.915h-9.139V50.62h9.139V35.035c2.13-2.074 4.933-3.251 9.363-3.42zm53.569 27.639h10.877l-11.213-16.09 10.316-11.102H376.46l-9.419 10.147V10.813h-9.139v39.805h9.139v-5.383l3.756-4.037zm-36.82-6.952c-3.926 0-6.224-2.97-6.224-6.671s2.298-6.616 6.224-6.616c2.747 0 4.877 1.738 5.326 4.206h8.578c-.672-7.008-6.446-11.885-13.96-11.885-8.523 0-14.858 6.054-14.858 14.296 0 8.298 6.335 14.353 14.858 14.353 7.512 0 13.287-4.878 13.96-11.885h-8.578c-.449 2.467-2.579 4.205-5.326 4.205z"/><path fill="#00C700" fill-rule="evenodd" d="M39.925 0c22.05 0 39.926 17.32 39.926 38.685S61.975 77.37 39.925 77.37 0 60.05 0 38.685C0 17.321 17.875 0 39.925 0" clip-rule="evenodd"/><path fill="#fff" fill-rule="evenodd" d="M44.127 21.29c-.005-.004-.01.015-.015.022.013-.063 0-.019.023-.08l.021-.046c.022-.043.038-.062.065-.096l-.094.202zm-21.068 7.403 15.635 10.662v10.234L22.916 38.787zm2.22 14.946 13.415 8.941v10.234l-13.558-9.082zm31.51-14.947L41.155 39.356V49.59l15.78-10.802zM54.773 43.64l-13.619 8.94v10.234l13.761-9.082zm-31.03-25.942c.105.078.281.145.416.222.327.184.862.593 1.144.848 1.448 1.308 2.642 3.404 3.746 5.085 1.19 1.81 2.34 3.35 4.115 4.412.33.197 1.373.66 1.812.688-.003-.973.237-2.11.534-3.018.236-.719.543-1.365.875-2.025.092-.182.311-.476.326-.674-.372-.376-2.497-1.855-2.898-2.095-.83-.493-1.406-.9-2.272-1.346l-.788-.413c.276.035 1.402.498 1.682.63 1.506.708 2.506 1.251 3.885 2.164.216.143.548.416.747.505.13-.11.529-.762.718-1.017.78-1.058 1.596-1.954 2.565-2.89-.238-.317-1.211-.89-1.567-1.092-.531-.304-1.147-.552-1.777-.786-3.228-1.189-7.56-1.19-10.96-.155-.487.147-2.028.68-2.305.955zm20.37 3.615c-.023.187-.14.38-.214.57l-.579 1.682c-1.243 3.694-1.85 8.387-1.802 12.349.01.857-.062.743.806.417 11.078-4.163 5.419-12.978 5.88-19.395.109-1.525.446-1.874.536-2.376-3.877 1.106-6.923 3.279-9.408 6.072l-1.057 1.3-.907 1.354c-.902 1.42-2.041 3.997-1.815 6.463.18 1.965 1.234 3.826 2.71 4.942.352.264.97.749 1.348.91.053.244-.073 1.336-.092 1.691-.024.411-.1 1.286-.047 1.669l.966-.122c.055-.216.023-.922.028-1.212.046-2.931.192-5.237.735-8.157.31-1.672.65-2.73 1.139-4.267.183-.578 1.447-3.64 1.775-3.89z" clip-rule="evenodd"/></svg>
